X:2
T:Gates of Edinburgh. Ru1.002, The
B:Rutherford's Country Dances Vol 1, 1756
Z:village music project, Steve Mansfield July 2015
M:C
L:1/8
W:Hey contrary sides .| Hey on your own sides :|
W:Then the Man falls in at Bottom & the Wo. falls
W:In at Top Foot it all fix & turn your own Partner :||
W:Then the Wo. falls in of the Man's side & the Man on
W:the Woman's side foot it all 6 and turn y[ou]r Partner :|
Q:2/4=80
N:NB Rest added by transcriber to balance bar lengths
K:Dm
|:"NB" z2 | CDEF A2f2 | cAGF G2FD | F2f2 c2AG | F2D4 G2 |
B2 (3Bcd A2 (3ABc | dAGF G2FD | F2f2 c2AG | F2D4 :|
|: d2 | fefa fagf | gfga gbag | fefg fgaf | gfed c2fg |
agfa gfeg | fedc f2fg | agfe dcBA | F2D4 :|
